X:19
T:GB/7b/19 It's of a Farmer All in this Town
%%VWML:GB-7b-19-0
F:http://www.vwml.org/record/GB/7b/19
P:F.W. J(ekyll) & G.S.K. B(utterworth)
C:Transcribed by Simon Furey and Lewis Jones
L:1/4
M:3/2
I:linebreak $
K:Ddor
D/E/ | F G F2 A, A, | C D C3 G | G E C2 F3/2 G/ | A G A3 C |$ F E F3 G | A G A d z d | A/G/ A F2 D3/2 E/ | D D D3 |]

